assets/images/icons/src/lock.svg

<?xml version="1.0" encoding="utf-8"?>
<!-- Generated by IcoMoon.io -->
<!DOCTYPE svg PUBLIC "-//W3C//DTD SVG 1.1//EN" "http://www.w3.org/Graphics/SVG/1.1/DTD/svg11.dtd">
<svg version="1.1" xmlns="http://www.w3.org/2000/svg" xmlns:xlink="http://www.w3.org/1999/xlink" width="9" height="14" viewBox="0 0 9 14">
<path fill="#444444" d="M2.5 6h4v-1.5q0-0.828-0.586-1.414t-1.414-0.586-1.414 0.586-0.586 1.414v1.5zM9 6.75v4.5q0 0.312-0.219 0.531t-0.531 0.219h-7.5q-0.312 0-0.531-0.219t-0.219-0.531v-4.5q0-0.312 0.219-0.531t0.531-0.219h0.25v-1.5q0-1.438 1.031-2.469t2.469-1.031 2.469 1.031 1.031 2.469v1.5h0.25q0.312 0 0.531 0.219t0.219 0.531z"></path>
</svg>

<svg xmlns="http://www.w3.org/2000/svg" width="9" height="14" viewBox="0 0 9 14"><path fill="#444" d="M2.5 6h4V4.5q0-.828-.586-1.414T4.5 2.5t-1.414.586T2.5 4.5V6zm6.5.75v4.5q0 .312-.219.531T8.25 12H.75q-.312 0-.531-.219T0 11.25v-4.5q0-.312.219-.531T.75 6H1V4.5q0-1.438 1.031-2.469T4.5 1t2.469 1.031T8 4.5V6h.25q.312 0 .531.219T9 6.75z"/></svg>
